tenants/businesswise/icons/channel_youtube.svg

<svg fill="none" height="32" viewBox="0 0 32 32" width="32" xmlns="http://www.w3.org/2000/svg" xmlns:xlink="http://www.w3.org/1999/xlink"><clipPath id="a"><path d="m0 0h32v32h-32z"/></clipPath><g clip-path="url(#a)" clip-rule="evenodd" fill="#000" fill-rule="evenodd"><path d="m16 1.88235c-7.79696 0-14.11765 6.32069-14.11765 14.11765 0 7.797 6.32069 14.1176 14.11765 14.1176 7.797 0 14.1176-6.3206 14.1176-14.1176 0-7.79696-6.3206-14.11765-14.1176-14.11765zm-16 14.11765c0-8.83656 7.16344-16 16-16 8.8366 0 16 7.16344 16 16 0 8.8366-7.1634 16-16 16-8.83656 0-16-7.1634-16-16z"/><path d="m23.2727 18.5922v-5.1842s0-2.4988-2.5066-2.4988h-9.533s-2.50581 0-2.50581 2.4988v5.1842s0 2.4988 2.50581 2.4988h9.533s2.5066 0 2.5066-2.4988zm-4.4488-2.5849-4.7618 2.7878v-5.5764z"/></g></svg>

<svg width="32" height="32" viewBox="0 0 32 32" fill="none" xmlns="http://www.w3.org/2000/svg">
<g clip-path="url(#clip0_2137_28202)">
<path fill-rule="evenodd" clip-rule="evenodd" d="M16 1.88235C8.20304 1.88235 1.88235 8.20304 1.88235 16C1.88235 23.797 8.20304 30.1176 16 30.1176C23.797 30.1176 30.1176 23.797 30.1176 16C30.1176 8.20304 23.797 1.88235 16 1.88235ZM0 16C0 7.16344 7.16344 0 16 0C24.8366 0 32 7.16344 32 16C32 24.8366 24.8366 32 16 32C7.16344 32 0 24.8366 0 16Z" fill="black"/>
<path fill-rule="evenodd" clip-rule="evenodd" d="M23.2727 18.5922V13.408C23.2727 13.408 23.2727 10.9092 20.7661 10.9092H11.2331C11.2331 10.9092 8.72729 10.9092 8.72729 13.408V18.5922C8.72729 18.5922 8.72729 21.091 11.2331 21.091H20.7661C20.7661 21.091 23.2727 21.091 23.2727 18.5922ZM18.8239 16.0073L14.0621 18.7951V13.2187L18.8239 16.0073Z" fill="black"/>
</g>
<defs>
<clipPath id="clip0_2137_28202">
<rect width="32" height="32" fill="white"/>
</clipPath>
</defs>
</svg>
